X: 31766
T: Patrick Kelly's
R: waltz
M: 3/4
K: Dmajor
|:A/B/c|d2 dc de|f2 d2 dB|A2 d2 F2|A2 G2 F2|E2- E2 ef|gf ed cB|A2 B2 G2|F2 G2 A2|
d2 dc de|f2 d2 dB|A2 d2 F2|A2 G2 F2|E2- E2 ef|gf ed cB|A2 B2 c2|d4:|
|:ag|f2 f2 A2|f2 f2 A2|f2 g2 a2|b2 a2 f2|e2 e2 A2|e2 e2 A2|e2 f2 g2|b2 a2 g2|
f2 f2 A2|f2 f2 A2|f2 g2 a2|b2 a2 f2|e2 e^d ef|gf ed cB|A2 B2 c2|d4:|

